X: 08080
T: MRS. BAUHAN
C: Bob McQuillen 3 Mar 90
B: Bob's Note Book 8 #80
%R: waltz
Z: 2021 John Chambers <jc:trillian.mit.edu>
M: 3/4
L: 1/4
K: A
e \
| "A"c>BA | "E"B>cB | "A"A>ce | a2e | "D"a>ga | f>ga | "A"ecA | "E"B2e |
| "A"c>BA | "E"B>cB | "A"A>ce | a2e | "D"a>gf | "A"e>dc | "E7"BAG | "A"A2 :|
|: a \
| "D"f>df | f>ga | "A"e>fe | ece | "D"f>ga | b<af | "A"ed>c | "E"B2 A/B/ |
| "A"c>ec | "E"B2c/B/ | "A"A>ce | "D"f2e | f>ga | "A"e<ac | "E"B>AB | "A"A2 :|
%%begintext align
%% Elizabeth
%% Forbes (Mrs. William) Bauhan, mother
%% of Patrick and Sarah, passed away this
%% year. In Memoriam, and with much love
%% from Mac.
%%endtext

%%sep 1 1 500

%%sep 1 1 500

